X: 42036
T: Waltz For Earl
R: waltz
M: 3/4
K: Dmajor
c de|:"D"f2e2d2|"A" c2 A3 A|"G" B d3 G2|"D" {B}A3 GFE|"G" D2G2F2|
E2"Bm7"A2B2|"A"A3G "D"(3FGA|"A" E3 FGA|"G"B2A2G2|"Bm"F2B,2 d>c|"D"de fe "A"cA|
"G"B3 def|"Em"g2f2e2|"D"d2A3A|1 "G" Bd3f2|"A7"e4 (3cde:|2 "G"Bd3 {ed}c2|"D" d2 z .d.d.c||
|:"Bm"B2F2B2|"G"B2G2B2|"D(Em7)" BAGF DE|"Bm" F2z .F.B.d|"F#m" c2F2cd|"G(A7)" c2 G2 cd|
"Em(D)" fedc "G"Bc|"D(F#m)" dcAF" G(Bm)"Bd|"D(Bm)"B2 F2 (3Bcd|"G"B2 G2 Bd|"F#m" cBAFGA|
"G"B3 Bcd|"A7"g2 f2 e2|"D"d2A3A|"G(Bm)" Bcdefg|1 "A"e3 .d.d.c:|2 "A"e3 cde "da capo"||
Bc de fa d'6||

